**kern	**kern	**dynam
*part1	*part1	*part1
*staff2	*staff1	*
*I"Piano	*	*
*clefF4	*clefG2	*
*k[]	*k[]	*
=1	=1	=1
4C	8r	pp
.	8gL 8dd	.
4F 4G 4d	8bJ 8gg	.
.	8r	.
=	=	=
4C	8r	.
.	8aL 8ff	.
4F 4A 4d	8ddJ 8aa	.
.	8r	.
=	=	=
4C	8r	.
.	8ddL 8aa	.
4F 4A 4d	8ffJ 8ddd	.
.	8r	.
=	=	=
4C	8r	.
.	8aL 8ff	.
4F 4A 4d	8ddJ 8aa	.
.	8r	.
=	=	=
4C	8r	.
.	8gL 8ff	.
4F 4G 4d	8ddJ 8gg	.
.	8r	.
=	=	=
8C 8c	8r	.
8r	8g 8ee	.
8AA 8A	8r	.
8r	8cc 8ee-X 8ff#X	.
=	=	=
4GG 4G	8r	.
.	8gL 8dd	.
4G 4d	8b 8gg	.
.	8gJ 8dd	.
=	=	=
4C 4c	8r	.
.	8gL 8ee	.
4G 4c 4e	8ccJ 8gg	.
.	8r	.
=	=	=
*-	*-	*-
!!!system-decoration: {(s1,s2)}
